svg/swap_vertical_circle_outline.svg

<svg xmlns="http://www.w3.org/2000/svg" viewBox="0 0 24 24"><path d="M12 2C6.5 2 2 6.5 2 12s4.5 10 10 10 10-4.5 10-10S17.5 2 12 2m0 18c-4.41 0-8-3.59-8-8s3.59-8 8-8 8 3.59 8 8-3.59 8-8 8M6.5 9 10 5.5 13.5 9H11v4H9V9zm11 6L14 18.5 10.5 15H13v-4h2v4z"/></svg>

<?xml version="1.0" encoding="UTF-8"?><!DOCTYPE svg PUBLIC "-//W3C//DTD SVG 1.1//EN" "http://www.w3.org/Graphics/SVG/1.1/DTD/svg11.dtd"><svg xmlns="http://www.w3.org/2000/svg" xmlns:xlink="http://www.w3.org/1999/xlink" version="1.1" id="mdi-swap-vertical-circle-outline" width="24" height="24" viewBox="0 0 24 24"><path d="M12 2C6.5 2 2 6.5 2 12S6.5 22 12 22 22 17.5 22 12 17.5 2 12 2M12 20C7.59 20 4 16.41 4 12S7.59 4 12 4 20 7.59 20 12 16.41 20 12 20M6.5 9L10 5.5L13.5 9H11V13H9V9H6.5M17.5 15L14 18.5L10.5 15H13V11H15V15H17.5Z" /></svg>
